www/static/img/overview/checkbox.svg

<svg fill="none" height="59" viewBox="0 0 135 59" width="135" xmlns="http://www.w3.org/2000/svg"><rect fill="#005979" height="22" rx="3" stroke="#005979" stroke-width="2" width="22" x="1" y="1"/><rect fill="#e9eced" height="10" rx="5" width="77" x="37" y="7"/><path d="m17.5812 6.19812c-.449-.34131-1.075-.23073-1.396.24775l-5.1679 7.69493-3.48893-2.3083c-.46999-.3105-1.08598-.1585-1.37797.3402-.291.4987-.147 1.1547.32199 1.4652l5.08191 3.3621 6.2589-9.31753c.3219-.47848.217-1.14303-.232-1.48435z" fill="#fff"/><rect fill="#fff" height="22" rx="3" stroke="#005979" stroke-width="2" width="22" x="1" y="36"/><rect fill="#e9eced" height="10" rx="5" width="98" x="37" y="42"/></svg>

<svg width="135" height="59" viewBox="0 0 135 59" fill="none" xmlns="http://www.w3.org/2000/svg">
<rect x="1" y="1" width="22" height="22" rx="3" fill="#005979" stroke="#005979" stroke-width="2"/>
<rect x="37" y="7" width="77" height="10" rx="5" fill="#E9ECED"/>
<path d="M17.5812 6.19812C17.1322 5.85681 16.5062 5.96739 16.1852 6.44587L11.0173 14.1408L7.52837 11.8325C7.05838 11.522 6.44239 11.674 6.1504 12.1727C5.8594 12.6714 6.0034 13.3274 6.47239 13.6379L11.5543 17L17.8132 7.68247C18.1351 7.20399 18.0302 6.53944 17.5812 6.19812Z" fill="white"/>
<rect x="1" y="36" width="22" height="22" rx="3" fill="white" stroke="#005979" stroke-width="2"/>
<rect x="37" y="42" width="98" height="10" rx="5" fill="#E9ECED"/>
</svg>
